components/ui-node-icon/src/postgresSource/postgresSource.medium.svg

<svg width="24" height="24" viewBox="0 0 24 24" fill="none" xmlns="http://www.w3.org/2000/svg">
  <path d="M16.3337 1C15.4789 1.00636 14.629 1.13067 13.8082 1.36942L13.7505 1.38775C13.2327 1.29626 12.7086 1.24568 12.1829 1.2365C11.1031 1.21817 10.1754 1.48034 9.42742 1.91667C8.69042 1.66092 7.1614 1.22 5.54989 1.308C4.42788 1.36942 3.2032 1.71042 2.29569 2.66835C1.39094 3.62627 0.912431 5.10854 1.01327 7.12522C1.04077 7.68164 1.19935 8.58915 1.46244 9.76433C1.72552 10.9395 2.09494 12.3154 2.55603 13.5704C3.01712 14.8262 3.5222 15.9537 4.31146 16.7201C4.70563 17.1041 5.2483 17.4268 5.88814 17.4002C6.33731 17.3819 6.7434 17.1848 7.09357 16.8942C7.26407 17.1188 7.44649 17.2169 7.61241 17.3076C7.82141 17.4222 8.02491 17.5001 8.23575 17.5515C8.61433 17.6459 9.26242 17.7724 10.0214 17.6432C10.2799 17.6001 10.5522 17.5157 10.8235 17.3956C10.8336 17.6982 10.8455 17.9942 10.8574 18.294C10.895 19.2437 10.9189 20.1209 11.2039 20.89C11.2498 21.0156 11.3754 21.6628 11.8704 22.2339C12.3654 22.8059 13.3352 23.1625 14.4398 22.9259C15.219 22.7591 16.2099 22.4584 16.8681 21.5216C17.5189 20.5958 17.8123 19.2675 17.87 17.1133C17.8847 16.9969 17.9021 16.8979 17.9204 16.8053L18.0753 16.8191H18.0937C18.9251 16.8566 19.8271 16.7384 20.5806 16.3882C21.2479 16.0793 21.753 15.7667 22.1206 15.2121C22.2123 15.0746 22.3131 14.9087 22.3406 14.6227C22.3681 14.3367 22.204 13.8894 21.9318 13.6831C21.3864 13.2688 21.0435 13.4264 20.6759 13.5025C20.3138 13.5826 19.9448 13.6274 19.5741 13.6364C20.6338 11.8516 21.3937 9.95591 21.8273 8.2784C22.084 7.28839 22.2279 6.37538 22.2398 5.57696C22.2517 4.77853 22.1866 4.07178 21.7081 3.46036C20.213 1.55 18.1111 1.022 16.4849 1.00367C16.4345 1.00275 16.3841 1.00183 16.3337 1.00275V1ZM16.2906 1.58667C17.8288 1.57201 19.7941 2.00376 21.2049 3.80686C21.522 4.21203 21.6165 4.8042 21.6055 5.53387C21.5935 6.26263 21.4588 7.13531 21.2122 8.0914C20.7337 9.94308 19.8299 12.1018 18.5566 14.0388C18.6016 14.0707 18.6502 14.0972 18.7014 14.1176C18.9673 14.2276 19.5732 14.322 20.7823 14.0736C21.0866 14.0094 21.3094 13.9664 21.5404 14.1424C21.5965 14.19 21.6409 14.2499 21.67 14.3175C21.6991 14.3851 21.7121 14.4585 21.7081 14.532C21.6958 14.6432 21.6547 14.7494 21.589 14.84C21.3552 15.191 20.8941 15.5238 20.3029 15.7979C19.7794 16.0417 19.0287 16.1691 18.3632 16.1765C18.0295 16.1801 17.7215 16.1545 17.4602 16.0729L17.4437 16.0665C17.3429 17.0381 17.111 18.9567 16.9597 19.8322C16.8387 20.538 16.627 21.099 16.2227 21.5189C15.8194 21.9387 15.2483 22.1917 14.4801 22.3567C13.5286 22.5611 12.8347 22.3411 12.3874 21.9644C11.9409 21.5885 11.7365 21.0898 11.6137 20.7846C11.5294 20.5738 11.4854 20.3006 11.4432 19.9358C11.401 19.5709 11.3699 19.1245 11.3488 18.6212C11.3207 17.8507 11.3115 17.0795 11.3213 16.3085C10.9238 16.6725 10.4299 16.9144 9.89859 17.0051C9.26701 17.1124 8.70325 17.007 8.36683 16.9226C8.20099 16.881 8.0409 16.8191 7.89016 16.7384C7.73433 16.655 7.58582 16.5606 7.48682 16.3745C7.42865 16.2679 7.41014 16.1442 7.43457 16.0252C7.46555 15.9047 7.53588 15.7979 7.63441 15.7218C7.81591 15.5742 8.05608 15.4917 8.41817 15.4165C9.07725 15.2809 9.30734 15.1883 9.44759 15.0774C9.56676 14.982 9.70151 14.7895 9.93985 14.5072C9.93871 14.4947 9.93779 14.4822 9.9371 14.4696C9.51055 14.4576 9.09285 14.3452 8.71792 14.1415C8.58042 14.2863 7.87824 15.0288 7.02207 16.0591C6.66182 16.49 6.26398 16.7375 5.84414 16.7549C5.4243 16.7732 5.0448 16.5615 4.72213 16.2489C4.07771 15.6228 3.56345 14.5457 3.1152 13.3284C2.66786 12.111 2.30394 10.7553 2.04544 9.60024C1.78602 8.44523 1.63294 7.51389 1.61094 7.06472C1.51469 5.1562 1.96111 3.87011 2.72653 3.05885C3.49287 2.24759 4.54338 1.94051 5.56731 1.88184C7.40524 1.77642 9.15059 2.41718 9.50351 2.55468C10.1837 2.09268 11.06 1.80484 12.1545 1.82317C12.6741 1.83046 13.1912 1.89751 13.6955 2.02301L13.7138 2.01476C13.9358 1.93674 14.1619 1.87125 14.3912 1.81859C15.0138 1.67335 15.6504 1.5962 16.2897 1.58851L16.2906 1.58667ZM16.4299 2.20084H16.2961C15.7709 2.20817 15.2477 2.26712 14.7341 2.37685C15.8762 2.88285 16.7388 3.66202 17.3466 4.43936C17.7688 4.97758 18.1177 5.56942 18.3843 6.19938C18.4851 6.44138 18.5529 6.6458 18.5914 6.80439C18.6107 6.88414 18.6235 6.95105 18.6281 7.02072C18.6299 7.05555 18.6318 7.0913 18.6171 7.15272C18.6171 7.15547 18.6125 7.16189 18.6116 7.16464C18.6391 7.96765 18.4402 8.51215 18.4163 9.27849C18.398 9.834 18.5401 10.4867 18.5749 11.1989C18.6079 11.8681 18.5273 12.6033 18.0928 13.3247C18.1294 13.3687 18.1624 13.4127 18.1973 13.4567C19.3468 11.6463 20.1754 9.64333 20.6173 7.93556C20.8538 7.01614 20.9794 6.18288 20.9904 5.52287C20.9995 4.86287 20.8767 4.38436 20.7199 4.18453C19.4898 2.61151 17.8251 2.21093 16.4299 2.19993V2.20084ZM12.039 2.43551C10.9555 2.43826 10.1782 2.76552 9.58876 3.25594C8.981 3.76286 8.57308 4.45678 8.30541 5.1672C7.98733 6.01055 7.87824 6.82639 7.83516 7.38006L7.84708 7.37272C8.17433 7.18939 8.60425 7.00605 9.06442 6.89972C9.52459 6.7943 10.0205 6.7613 10.4697 6.93547C10.9189 7.10964 11.2901 7.51939 11.4249 8.1409C12.0702 11.1265 11.2241 12.2366 10.9124 13.0744C10.7942 13.3781 10.6929 13.6881 10.609 14.003C10.6484 13.9939 10.6879 13.9829 10.7273 13.9792C10.9473 13.9609 11.1196 14.0342 11.2223 14.0782C11.5358 14.2084 11.7512 14.4815 11.8676 14.7932C11.8979 14.8748 11.9199 14.9628 11.9327 15.0535C11.9462 15.0908 11.9525 15.1303 11.951 15.17C11.9163 16.3119 11.9202 17.4548 11.9629 18.5965C11.984 19.0897 12.0152 19.5242 12.0546 19.867C12.094 20.2089 12.1499 20.4693 12.1857 20.5573C12.303 20.8506 12.4745 21.2347 12.7843 21.4959C13.0941 21.7563 13.5387 21.9304 14.3509 21.7563C15.0549 21.605 15.4894 21.3951 15.78 21.0935C16.0697 20.7919 16.2429 20.3721 16.3538 19.7295C16.5197 18.767 16.8534 15.9757 16.8937 15.4505C16.8754 15.0545 16.9341 14.7501 17.0606 14.5182C17.1907 14.2799 17.3924 14.1341 17.5666 14.0553C17.6537 14.0159 17.7352 13.9893 17.8022 13.97C17.7313 13.8682 17.657 13.7689 17.5794 13.6721C17.3283 13.3676 17.1227 13.0282 16.9689 12.6647C16.8953 12.5146 16.8167 12.3669 16.7333 12.2219C16.6114 12.0019 16.4574 11.7269 16.2961 11.418C15.9734 10.7993 15.6223 10.0494 15.4399 9.31882C15.2584 8.58915 15.2318 7.83381 15.6975 7.30122C16.11 6.82822 16.8342 6.63205 17.9213 6.74205C17.8893 6.6458 17.87 6.56605 17.8159 6.43772C17.5701 5.85919 17.2493 5.31552 16.8617 4.8207C15.9404 3.64277 14.449 2.47493 12.1444 2.43735H12.039V2.43551ZM5.95048 2.48318C5.83406 2.48318 5.71764 2.48685 5.60214 2.49326C4.6763 2.54643 3.80087 2.81502 3.17478 3.47869C2.54778 4.14236 2.13528 5.23045 2.22511 7.03172C2.24253 7.37272 2.39103 8.3279 2.64586 9.46274C2.89978 10.5976 3.26004 11.9332 3.69271 13.1129C4.12629 14.2927 4.65155 15.3194 5.15022 15.8052C5.40139 16.0481 5.61956 16.1462 5.81756 16.138C6.01648 16.1288 6.25573 16.0142 6.54815 15.6631C7.08129 15.02 7.63463 14.3939 8.20733 13.7858C7.80097 13.433 7.48998 12.9835 7.30303 12.4789C7.11607 11.9742 7.05917 11.4307 7.13757 10.8983C7.23199 10.2208 7.24482 9.58741 7.23382 9.08691C7.22282 8.59923 7.18799 8.27473 7.18799 8.07215C7.18782 8.06634 7.18782 8.06053 7.18799 8.05473V8.05015L7.18707 8.04465V8.04373C7.18653 6.98845 7.37017 5.94117 7.72974 4.94904C7.98641 4.26703 8.36866 3.57402 8.94159 3.01302C8.37875 2.82785 7.37957 2.54551 6.2979 2.49235C6.18188 2.48639 6.06573 2.48333 5.94956 2.48318H5.95048ZM17.3154 7.32506C16.693 7.33331 16.3437 7.49373 16.1604 7.70364C15.901 8.00156 15.8762 8.52407 16.0376 9.16757C16.198 9.812 16.5298 10.5325 16.8415 11.1311C16.9973 11.4308 17.1486 11.7003 17.2705 11.9194C17.3933 12.1394 17.4832 12.2953 17.5382 12.4282C17.5886 12.551 17.6445 12.6592 17.7013 12.76C17.9424 12.2513 17.9855 11.7517 17.9608 11.231C17.9287 10.5866 17.7793 9.9275 17.8013 9.26016C17.826 8.48007 17.98 7.97223 17.9938 7.36906C17.7688 7.33992 17.5422 7.32522 17.3154 7.32506ZM9.76751 7.43047C9.57736 7.43225 9.38799 7.455 9.20284 7.49831C8.83382 7.58797 8.47838 7.72638 8.14591 7.9099C8.03345 7.97022 7.92641 8.04015 7.82599 8.1189L7.80583 8.13723C7.81133 8.27107 7.83791 8.59557 7.84891 9.07316C7.85991 9.59566 7.84708 10.2621 7.74624 10.9835C7.52716 12.551 8.66475 13.849 10.0013 13.8509C10.0792 13.5291 10.2075 13.2028 10.3358 12.859C10.708 11.8562 11.4404 11.1247 10.8235 8.27015C10.7227 7.80264 10.5229 7.61381 10.2478 7.50748C10.0937 7.45296 9.93096 7.42687 9.76751 7.43047ZM17.0248 7.61748H17.0707C17.1312 7.61931 17.1871 7.62573 17.2357 7.63764C17.2852 7.64864 17.3273 7.66514 17.3622 7.68806C17.38 7.69913 17.3954 7.71382 17.4072 7.73119C17.4191 7.74856 17.4271 7.76821 17.4309 7.78889L17.43 7.79623H17.4309H17.43C17.4318 7.83974 17.4206 7.88281 17.3979 7.91998C17.3709 7.97029 17.3369 8.01657 17.2971 8.05748C17.2041 8.15988 17.0795 8.22828 16.9432 8.25181C16.8106 8.26785 16.6767 8.23421 16.5674 8.1574C16.5227 8.1273 16.4825 8.09086 16.4482 8.04923C16.4186 8.01652 16.3986 7.97622 16.3905 7.93281C16.3886 7.91166 16.391 7.89035 16.3976 7.87017C16.4042 7.84999 16.4149 7.83138 16.429 7.81548C16.4591 7.7813 16.4955 7.75328 16.5362 7.73298C16.6242 7.68348 16.7434 7.64681 16.8782 7.62664C16.9286 7.61931 16.9781 7.61564 17.0248 7.61473V7.61748ZM9.85643 7.77148C9.90501 7.77148 9.95635 7.77606 10.0086 7.78339C10.1488 7.80264 10.2735 7.84023 10.3688 7.89523C10.4153 7.9195 10.4567 7.95249 10.4908 7.9924C10.5093 8.01357 10.5233 8.03833 10.5318 8.06515C10.5403 8.09196 10.5432 8.12025 10.5403 8.14823C10.5315 8.20094 10.5076 8.24996 10.4715 8.2894C10.434 8.33544 10.3898 8.37561 10.3404 8.40857C10.2212 8.49303 10.0748 8.52996 9.92976 8.51215C9.78157 8.48779 9.64592 8.41415 9.54476 8.30315C9.50172 8.25845 9.4653 8.20783 9.43659 8.15281C9.40638 8.10441 9.39315 8.04732 9.39901 7.99056C9.41276 7.89156 9.49434 7.84023 9.57409 7.81181C9.66493 7.78278 9.76026 7.77036 9.85551 7.77514L9.85643 7.77148ZM18.1615 14.5026L18.1588 14.5035C18.024 14.5521 17.9131 14.5723 17.8196 14.6135C17.725 14.6499 17.6471 14.7197 17.6005 14.8097C17.5427 14.9151 17.4932 15.1021 17.5079 15.4202C17.5494 15.4488 17.5952 15.4704 17.6436 15.4844C17.8003 15.532 18.0634 15.5632 18.3568 15.5586C18.9416 15.5522 19.6612 15.4156 20.0434 15.2378C20.357 15.0921 20.6481 14.9023 20.9079 14.674H20.9069C19.63 14.938 18.9086 14.8675 18.4658 14.685C18.3559 14.6393 18.2533 14.5775 18.1615 14.5017V14.5026ZM10.7997 14.5888H10.7804C10.7319 14.5934 10.6613 14.6099 10.5247 14.7611C10.2057 15.1186 10.0938 15.3432 9.83076 15.5531C9.56768 15.7621 9.22576 15.874 8.54283 16.0142C8.3265 16.0582 8.20275 16.1068 8.12025 16.1462C8.14683 16.1682 8.14408 16.1737 8.18441 16.1948C8.28433 16.2498 8.41267 16.2984 8.51625 16.325C8.80959 16.3983 9.29176 16.4836 9.79501 16.3983C10.2983 16.3121 10.8217 16.0711 11.2681 15.445C11.3451 15.3368 11.3534 15.1773 11.2901 15.0059C11.2259 14.8345 11.0857 14.6869 10.9867 14.6456C10.9278 14.6172 10.8646 14.5986 10.7997 14.5906V14.5888Z" fill="var(--tbl--colors--brand--postgres)"/>
</svg>

<svg xmlns="http://www.w3.org/2000/svg" width="24" height="24" fill="none" viewBox="0 0 24 24">
  <path fill="var(--tbl--colors--brand--postgres)" d="M16.334 1a9.29 9.29 0 0 0-2.526.37l-.057.018a10.014 10.014 0 0 0-1.568-.151c-1.08-.019-2.008.243-2.756.68-.737-.256-2.266-.697-3.877-.609-1.122.061-2.347.402-3.254 1.36-.905.958-1.384 2.44-1.283 4.457.028.557.186 1.464.45 2.64.263 1.175.632 2.55 1.093 3.805.461 1.256.966 2.384 1.755 3.15.395.384.937.707 1.577.68.45-.018.855-.215 1.206-.506.17.225.352.323.518.414.21.114.413.192.624.244.378.094 1.026.22 1.785.091.259-.043.531-.127.802-.247.01.302.022.598.034.898.038.95.062 1.827.347 2.596.046.126.171.773.666 1.344.495.572 1.465.928 2.57.692.779-.167 1.77-.468 2.428-1.404.65-.926.944-2.255 1.002-4.409.015-.116.032-.215.05-.308l.155.014h.019c.831.038 1.733-.08 2.487-.43.667-.31 1.172-.622 1.54-1.177.091-.137.192-.303.22-.59.027-.285-.137-.733-.41-.939-.545-.414-.887-.257-1.255-.18-.362.08-.731.124-1.102.133 1.06-1.784 1.82-3.68 2.253-5.358.257-.99.4-1.903.413-2.701.012-.798-.053-1.505-.532-2.117-1.495-1.91-3.597-2.438-5.223-2.456-.05-.001-.1-.002-.151-.001V1Zm-.043.587c1.538-.015 3.503.417 4.914 2.22.317.405.412.997.4 1.727-.012.729-.146 1.601-.393 2.557-.478 1.852-1.382 4.01-2.655 5.948a.696.696 0 0 0 .144.079c.266.11.872.204 2.081-.044.305-.065.527-.108.758.068a.477.477 0 0 1 .168.39.646.646 0 0 1-.119.308c-.234.351-.695.684-1.286.958-.524.244-1.274.371-1.94.379-.334.003-.642-.023-.903-.104l-.016-.006c-.101.971-.333 2.89-.484 3.765-.121.706-.333 1.267-.737 1.687-.404.42-.975.673-1.743.838-.951.204-1.645-.016-2.093-.393-.446-.375-.65-.874-.773-1.18-.085-.21-.129-.483-.17-.848a18.596 18.596 0 0 1-.095-1.315 47.05 47.05 0 0 1-.028-2.313 2.806 2.806 0 0 1-1.422.697c-.632.107-1.196.002-1.532-.082a2.085 2.085 0 0 1-.477-.185c-.156-.083-.304-.177-.403-.363a.513.513 0 0 1-.052-.35.56.56 0 0 1 .2-.303c.18-.148.421-.23.783-.306.66-.135.89-.228 1.03-.339.119-.095.254-.287.492-.57a1.039 1.039 0 0 1-.003-.037 2.714 2.714 0 0 1-1.22-.329c-.137.145-.839.888-1.695 1.918-.36.431-.758.678-1.178.696-.42.018-.8-.194-1.122-.506-.644-.626-1.159-1.703-1.607-2.92-.447-1.218-.811-2.574-1.07-3.729-.259-1.155-.412-2.086-.434-2.535-.096-1.909.35-3.195 1.116-4.006.766-.811 1.816-1.118 2.84-1.177 1.838-.106 3.584.535 3.937.673.68-.462 1.556-.75 2.65-.732.52.007 1.037.075 1.541.2l.019-.008c.222-.078.448-.144.677-.196a8.824 8.824 0 0 1 1.899-.23v-.002Zm.139.614h-.134a8.011 8.011 0 0 0-1.562.176 6.869 6.869 0 0 1 2.613 2.062c.422.539.77 1.13 1.037 1.76.101.242.169.447.207.605.02.08.032.147.037.217.002.035.004.07-.01.132l-.006.012c.027.803-.172 1.347-.196 2.113-.018.556.124 1.209.159 1.92.033.67-.048 1.405-.482 2.127.036.044.07.088.104.132 1.15-1.81 1.978-3.814 2.42-5.521.237-.92.362-1.753.373-2.413.01-.66-.113-1.139-.27-1.338-1.23-1.573-2.895-1.974-4.29-1.985Zm-4.391.235c-1.083.002-1.86.33-2.45.82-.608.507-1.016 1.2-1.284 1.911a8.107 8.107 0 0 0-.47 2.213l.012-.007A4.75 4.75 0 0 1 9.064 6.9c.46-.106.957-.139 1.406.035.449.175.82.584.955 1.206.645 2.986-.2 4.096-.513 4.933-.118.304-.22.614-.303.929.04-.01.079-.02.118-.024.22-.018.393.055.495.1.314.13.53.402.646.714.03.082.052.17.065.26.013.038.02.077.018.117a50.579 50.579 0 0 0 .012 3.426c.021.494.052.928.092 1.271.039.342.095.602.13.69.118.294.29.678.6.939.31.26.754.434 1.566.26.704-.151 1.138-.36 1.429-.663.29-.301.463-.72.574-1.363.166-.963.5-3.754.54-4.28-.019-.395.04-.7.167-.932.13-.238.331-.384.506-.463.087-.04.168-.066.235-.085a5.52 5.52 0 0 0-.223-.298 4.086 4.086 0 0 1-.61-1.007 7.593 7.593 0 0 0-.236-.443c-.122-.22-.276-.495-.437-.804-.323-.619-.674-1.369-.856-2.1-.182-.729-.208-1.484.258-2.017.412-.473 1.136-.669 2.223-.559-.032-.096-.051-.176-.105-.304a7.167 7.167 0 0 0-.954-1.617c-.922-1.178-2.413-2.346-4.718-2.384h-.105v-.001Zm-6.089.047c-.116 0-.232.004-.348.01-.926.053-1.801.322-2.427.986-.627.663-1.04 1.751-.95 3.553.018.34.166 1.296.42 2.43.255 1.136.615 2.471 1.048 3.65.433 1.18.959 2.207 1.457 2.693.251.243.47.341.668.333.198-.01.438-.124.73-.475a39.623 39.623 0 0 1 1.66-1.877 3.206 3.206 0 0 1-1.07-2.888c.094-.677.107-1.31.096-1.811-.011-.488-.046-.812-.046-1.015V8.044c-.001-1.056.182-2.103.542-3.095.256-.682.639-1.375 1.212-1.936-.563-.185-1.562-.467-2.644-.52a6.965 6.965 0 0 0-.348-.01Zm11.365 4.842c-.622.008-.971.169-1.155.379-.259.298-.284.82-.122 1.464.16.644.492 1.365.803 1.963.156.3.308.57.43.788.122.22.212.376.267.51.05.122.107.23.163.331.241-.509.284-1.008.26-1.529-.032-.644-.182-1.303-.16-1.97.025-.78.179-1.289.193-1.892a5.311 5.311 0 0 0-.679-.044Zm-7.547.105c-.19.002-.38.025-.565.068-.37.09-.725.228-1.057.412-.113.06-.22.13-.32.209l-.02.018c.005.134.032.459.043.936a12.02 12.02 0 0 1-.103 1.91c-.219 1.568.919 2.866 2.255 2.868.078-.322.207-.648.335-.992.372-1.003 1.104-1.734.487-4.589-.1-.467-.3-.656-.575-.763a1.35 1.35 0 0 0-.48-.077Zm7.257.187h.046c.06.002.116.009.165.02.05.012.091.028.126.051a.15.15 0 0 1 .069.1l-.001.008a.22.22 0 0 1-.032.124.613.613 0 0 1-.1.137.62.62 0 0 1-.355.195.54.54 0 0 1-.376-.095.56.56 0 0 1-.119-.108.239.239 0 0 1-.058-.116.156.156 0 0 1 .039-.118.353.353 0 0 1 .107-.082 1.183 1.183 0 0 1 .489-.118v.002Zm-7.169.154c.049 0 .1.005.153.012.14.02.264.057.36.112a.41.41 0 0 1 .122.097.205.205 0 0 1 .05.156.277.277 0 0 1-.07.141.595.595 0 0 1-.13.12.587.587 0 0 1-.411.103.667.667 0 0 1-.385-.209.65.65 0 0 1-.108-.15.257.257 0 0 1-.038-.162c.014-.1.095-.15.175-.18a.794.794 0 0 1 .282-.036v-.004Zm8.306 6.732h-.003c-.135.05-.246.07-.34.11a.414.414 0 0 0-.218.197c-.058.105-.108.292-.093.61.041.029.087.05.136.064.156.048.42.08.713.075.585-.007 1.304-.143 1.686-.321a3.62 3.62 0 0 0 .865-.564h-.001c-1.277.264-1.998.194-2.441.011a1.204 1.204 0 0 1-.305-.183Zm-7.362.086h-.02c-.048.004-.119.02-.255.172-.32.358-.431.582-.694.792-.263.21-.605.321-1.288.461-.216.044-.34.093-.423.132.027.022.024.028.064.049.1.055.229.103.332.13.294.073.776.159 1.279.073.503-.086 1.027-.327 1.473-.953.077-.108.085-.268.022-.44-.064-.17-.204-.318-.303-.36a.6.6 0 0 0-.187-.054v-.002Z"/>
</svg>
